X: 7654
T: Coldside, The
R: jig
M: 6/8
K: Eminor
|:e3 B2A|GFG EGB|d3 A2G|FdB AFD|
B3 g3|fe^d e2c|BcB AGF|1 GEE E2B:|2 GEE E2F||
|:GAG EFG|BAG BAG|FGF DEF|AGF AGF|
GBd FAc|EGB e2c|BcB AGF|1 GEE E2F:|2 GEE E2B||

